Sources/FrostedUI/Resources/Icons.xcassets/squareAdd20.imageset/square-add-20.svg

<svg width="20" height="20" viewBox="0 0 20 20" fill="none" xmlns="http://www.w3.org/2000/svg" data-fui-icon="true">
  <path
    d="M15.208 2.375C16.5427 2.375 17.625 3.45731 17.625 4.79199V9.375C17.625 9.78921 17.2892 10.125 16.875 10.125C16.4608 10.125 16.125 9.78921 16.125 9.375V4.79199C16.125 4.28572 15.7143 3.875 15.208 3.875H4.79199C4.28573 3.875 3.875 4.28573 3.875 4.79199V15.208C3.875 15.7143 4.28572 16.125 4.79199 16.125H10.208C10.6222 16.125 10.958 16.4608 10.958 16.875C10.958 17.2892 10.6222 17.625 10.208 17.625H4.79199C3.45731 17.625 2.375 16.5427 2.375 15.208V4.79199C2.375 3.4573 3.4573 2.375 4.79199 2.375H15.208ZM15.208 11.125C15.6222 11.125 15.958 11.4608 15.958 11.875V13.625H17.708C18.1222 13.625 18.458 13.9608 18.458 14.375C18.458 14.7892 18.1222 15.125 17.708 15.125H15.958V16.875C15.958 17.2892 15.6222 17.625 15.208 17.625C14.7939 17.6248 14.458 17.2891 14.458 16.875V15.125H12.708C12.2939 15.1248 11.958 14.7891 11.958 14.375C11.958 13.9609 12.2939 13.6252 12.708 13.625H14.458V11.875C14.458 11.4609 14.7939 11.1252 15.208 11.125Z"
    fill="currentColor"
  />
</svg>

<svg xmlns="http://www.w3.org/2000/svg" width="20" height="20" fill="none" data-fui-icon="true" viewBox="0 0 20 20"><path fill="currentColor" d="M15.208 2.375a2.417 2.417 0 0 1 2.417 2.417v4.583a.75.75 0 0 1-1.5 0V4.792a.917.917 0 0 0-.917-.917H4.792a.917.917 0 0 0-.917.917v10.416c0 .506.41.917.917.917h5.416a.75.75 0 0 1 0 1.5H4.792a2.417 2.417 0 0 1-2.417-2.417V4.792a2.417 2.417 0 0 1 2.417-2.417zm0 8.75a.75.75 0 0 1 .75.75v1.75h1.75a.75.75 0 0 1 0 1.5h-1.75v1.75a.75.75 0 0 1-1.5 0v-1.75h-1.75a.75.75 0 0 1 0-1.5h1.75v-1.75a.75.75 0 0 1 .75-.75"/></svg>
